Numix-GalliumOS/16/mimetypes/application-x-trash.svg

<?xml version="1.0" encoding="UTF-8" standalone="no"?>
<svg
   xmlns:dc="http://purl.org/dc/elements/1.1/"
   xmlns:cc="http://creativecommons.org/ns#"
   xmlns:rdf="http://www.w3.org/1999/02/22-rdf-syntax-ns#"
   xmlns:svg="http://www.w3.org/2000/svg"
   xmlns="http://www.w3.org/2000/svg"
   xmlns:sodipodi="http://sodipodi.sourceforge.net/DTD/sodipodi-0.dtd"
   xmlns:inkscape="http://www.inkscape.org/namespaces/inkscape"
   width="16"
   height="16"
   viewBox="0 0 16 16"
   id="svg2"
   version="1.1"
   inkscape:version="0.48.5 r10040"
   sodipodi:docname="application-x-trash.svg">
  <metadata
     id="metadata22">
    <rdf:RDF>
      <cc:Work
         rdf:about="">
        <dc:format>image/svg+xml</dc:format>
        <dc:type
           rdf:resource="http://purl.org/dc/dcmitype/StillImage" />
      </cc:Work>
    </rdf:RDF>
  </metadata>
  <defs
     id="defs20" />
  <sodipodi:namedview
     pagecolor="#ffffff"
     bordercolor="#666666"
     borderopacity="1"
     objecttolerance="10"
     gridtolerance="10"
     guidetolerance="10"
     inkscape:pageopacity="0"
     inkscape:pageshadow="2"
     inkscape:window-width="1280"
     inkscape:window-height="970"
     id="namedview18"
     showgrid="true"
     inkscape:zoom="41.7193"
     inkscape:cx="9.2323636"
     inkscape:cy="7.2962898"
     inkscape:window-x="0"
     inkscape:window-y="0"
     inkscape:window-maximized="1"
     inkscape:current-layer="svg2">
    <inkscape:grid
       type="xygrid"
       id="grid3010" />
  </sodipodi:namedview>
  <path
     style="fill:#dcdcdc;fill-opacity:1"
     d="M 2.667969,-4.459e-4 C 2.324219,-4.459e-4 2,0.3378121 2,0.6964468 L 2,15.303108 C 2,15.641365 2.34375,16 2.667969,16 l 10.664062,0 C 13.65625,16 14,15.641365 14,15.303108 L 14,3.9995538 10,-4.459e-4 z"
     id="path4"
     inkscape:connector-curvature="0"
     sodipodi:nodetypes="ssssssccs" />
  <path
     style="fill:#000000;fill-opacity:0.19599998"
     d="m 10.583223,3.3315848 0.0154,0.01953 0.04005,-0.01953 z m 0.02978,0.667969 3.387,3.6640621 0,-3.6640621 z"
     id="path6"
     inkscape:connector-curvature="0"
     sodipodi:nodetypes="cccccccc" />
  <g
     style="fill:#888888"
     id="g10"
     transform="matrix(1.2999414,0,0,1.2999414,-2.3995313,-2.5992969)">
    <path
       d="m 7.714844,11.5 0,-1.601562 -1.5625,0 0.273437,-0.460938 0.5,0 -0.726562,-1.222656 -1.582031,0 0.34375,0.195312 L 4.5,9.1875 l 1.238281,2.09375 0.117188,0.195312 0.03125,0.05078 z"
       id="path12"
       inkscape:connector-curvature="0" />
    <path
       d="m 10.5625,7.742188 -1.425781,0.804687 0.78125,1.316406 -0.542969,0 L 9.125,9.441406 8.398438,10.664062 9.191406,12 l 0,-0.390625 0.921875,0 L 11.351562,9.519531 11.46875,9.320312 11.5,9.273438 z"
       id="path14"
       inkscape:connector-curvature="0" />
    <path
       d="M 5.792969,6.886719 7.21875,7.691406 8,6.375 l 0.273438,0.457031 -0.25,0.421875 1.445312,0 0.792969,-1.335937 -0.34375,0.191406 -0.460938,-0.777344 -2.773437,0 z"
       id="path16"
       inkscape:connector-curvature="0" />
  </g>
  <path
     style="fill:#ffffff;fill-opacity:0.39200003"
     d="m 10,-4.459e-4 3.996396,3.9999997 -3.383784,0 C 10.313513,3.9995538 10,3.6824368 10,3.3833378 z"
     id="path8"
     inkscape:connector-curvature="0"
     sodipodi:nodetypes="ccssc" />
</svg>

<svg xmlns="http://www.w3.org/2000/svg" viewBox="0 0 16 16">
 <path d="m 2.668 0 c -0.344 0 -0.668 0.338 -0.668 0.697 l 0 14.607 c 0 0.338 0.344 0.697 0.668 0.697 l 10.664 0 c 0.324 0 0.668 -0.359 0.668 -0.697 l 0 -11.304 -4 -4 z" style="fill:#dcdcdc;fill-opacity:1"/>
 <path d="m 10.583 3.332 0.015 0.02 0.04 -0.02 z m 0.03 0.668 3.387 3.664 0 -3.664 z" style="fill:#000;fill-opacity:0.196"/>
 <g transform="matrix(1.2999414,0,0,1.2999414,-2.3995313,-2.5992969)" style="fill:#888">
  <path d="m 7.715 11.5 0 -1.602 -1.563 0 0.273 -0.461 0.5 0 -0.727 -1.223 -1.582 0 0.344 0.195 l -0.461 0.777 l 1.238 2.094 0.117 0.195 0.031 0.051 z"/>
  <path d="m 10.563 7.742 -1.426 0.805 0.781 1.316 -0.543 0 l -0.25 -0.422 -0.727 1.223 0.793 1.336 l 0 -0.391 0.922 0 l 1.238 -2.09 0.117 -0.199 0.031 -0.047 z"/>
  <path d="m 5.793 6.887 1.426 0.805 0.781 -1.316 l 0.273 0.457 -0.25 0.422 1.445 0 0.793 -1.336 -0.344 0.191 -0.461 -0.777 -2.773 0 z"/>
 </g>
 <path d="m 10 0 3.996 4 -3.384 0 c -0.299 0 -0.613 -0.317 -0.613 -0.616 z" style="fill:#fff;fill-opacity:0.392"/>
</svg>
